X: 31638
T: Par Cark, The
R: reel
M: 4/4
K: Adorian
FD E/F/G AdBG|AD D/D/D AGEA|GC C2 GCEG|cG G2 AGEG|
FD E/F/G AdBG|AD D/D/D AGEA|GC C2 GCEG|A/B/c AG ED D2:|
fd d2 ad d2|ABcd AD D/D/D|ed d2 c2 Gc|A=F F2 GEED|
fd d2 ad d2|ABcd AD D/D/D|EC C2 GCEG|A/B/c AG ED D2:|

